X: 1
T: Tuoltape kuuluu lehm\"ankello   [Am]
O: trad. Finland
Z: 2013 John Chambers <jc:trillian.mit.edu>
M: 3/4
L: 1/16
K: Am
"A"|:\
"Am"ABcd e4 a4 | "Em"agbg e6 g2 |\
"Dm"f2e2 d2c2 B2A2 | "Am"ABcd "D"ed^fd "E"e2e2 :|
"B"|:\
"Am"cBdc "(E)"BAcB "Am"A^GAB | "Am"cBAc "Dm"B2A2 "E"E4 |\
"Am"c2Bc "Dm"d2cd "Am"e2e2 |1 "E7"cBA^G B4 "Am"A2B2 :|2 "E7"cBA^G B4 "Am"A4 |]
"C"|:\
"C"g4 gfed "G7"cdef | "C"g2ag "G"a2b2 "Am"c'4 |\
"Am"c4 "Dm"d4 "Am"e4 | "E7"cBA^G B4 "Am"A2B2 |
"Am"cBdc "(E)"BAcB "Am"A^GAB | "Am"cBAc "Dm"B2A2 "E"E4 |\
"Am"c2Bc "Dm"d2cd "Am"e2e2 | "E7"cBA^G B4 "Am"A4 :|

%%sep 1 1 500

